X:8206
T:Young Spaud's Hornpipe
O:england
M:9/4
L:1/8
K:G
P:1
g3 def e3 cde d2 B2 d2 | f2 c2 f2 f2 c2 f2 e4 d2 |\
G2 D2 F2 E2 C2 E2 D2 B,2 G,2 | g6 g4 ag f4 d2 ||
P:2
B2 d4 f2 a4 A2 c4 | c6 F4 AB c4 BA |\
gfga g2 f2 d2 B2 g2 d2 B2 | BABc d2 G3 A B2 c3 B A2 ||
P:3
g2 d2 B2 c2 AB c2 B2 A2 F2 | C6 F4 AB c4 BA |\
b2 ga b2 a2 fg d2 ef g2 f2 | D6 G4 c2 cdcB A2 ||
P:4
D3 GFG C4 F2 B,4 D2 | A,4 F2 F2 C2 F2 E4 F2 |\
D3 GFG C3 DEC B,3 CDB, | G,4 G2 DE F2 D2 E4 F2 ||
P:5
gfga g2 b3 a g2 d2 ef g2 | A3 B c2 c2 AB c2 B4 A2 |\
d4 cB c4 AF G2 D2 B,2 | G,6 G4 AB cdcB A2 ||
P:6
B2 d4 e2 g4 f2 g4       | f6 F4 AB c4 BA |\
BABc d2 edef g2 fefg a2 | g6 G4 AB c4 BA |]


